X:1
T:Title
%%score { ( 1 3 ) | ( 2 4 ) }
L:1/8
Q:1/4=100
M:4/4
K:C
V:1 treble nm="Grand Piano"
V:3 treble 
V:2 bass 
V:4 bass 
V:1
 [EG]2 [CE][DF] [EG] [Ec]2 [Ec] | [Fc][CAc][CGB][CFA] [CEG]4 | %2
w: W.~J.~Kirkpatrick * * * * *||
 [G,B,F][G,B,F][G,B,F][G,B,G][K:bass] [G,CE] [G,CE]2 [G,CE] | %3
w: |
 [F,B,D][K:treble][B,DG][DGB][C^FA] [B,G]2- [B,EG]2 | [CEG]2 [G,CE][G,DF] [CEG] [Ec]2 [Ec] | %5
w: ||
 dcBc A4 |[M:9/8] [EG][Ec][EB] [Ec] [Ge]2 [EGc]3 |[M:4/4] cBAB [Ec]4 | [EG]2 [CE][DF] [EG]2 [Ec]2 | %9
w: ||||
 [Ac]2 [CGB][CFA] [_EA]2 [=EG]2 | GABc dBAG | [Ec]-[G,Ec-]cd e4 | [Ge]2 [Ge]>[Fd] [Ec]2 [EG]2 | %13
w: ||||
 A2 d>e [^Fd]2 [FA]2 |[M:9/8] BBA G [Ec]2 [Ge]3 | %15
w: ||
[M:4/4] [Gc]2[Q:1/4=88] [GB]2 z4[Q:1/4=98][Q:1/4=97][Q:1/4=95][Q:1/4=94][Q:1/4=92][Q:1/4=91][Q:1/4=89][Q:1/4=86][Q:1/4=84][Q:1/4=83][Q:1/4=81][Q:1/4=80][Q:1/4=78][Q:1/4=77] |] %16
w: |
V:2
 [C,C]2 [C,G,][C,G,] [C,C] [C,G,]2 [C,G,] | [F,A,]F,F,F, C,4 | D,D,G,,G,, C, C,2 C, | %3
 D,D,D,D, z F,E,D, | C,2 C,C, C, [C,G,]2 [C,G,] | [F,A,F][F,A,F][F,^G,F][F,A,F] [F,CF]4 | %6
[M:9/8] [C,C][C,G,][C,G,] [C,G,] [C,C]2 C,3 | %7
[M:4/4][K:treble] [G,DF][G,DF][G,DF][G,F][K:bass] [C,G,]4 | [C,C]2 [C,G,][C,G,] [C,C]2 [C,G,]2 | %9
 A,CF,F, [C,C]2 [C,C]2 | [G,B,F][G,CF][G,DF][G,DF] [G,B,F][G,DF][G,CF][G,B,F] | %11
 C,C,[E,C][G,B,] [CG]4 | [C,C]2 [C,C]>[C,G,] [C,G,]2 [C,C]2 | %13
 [F,CF]2 [F,A,F]>[F,A,F] [D,A,]2 [D,D]2 | %14
[M:9/8][K:treble] [G,DF][G,DF][G,CF] [G,B,F][K:bass] [C,C]2 [C,C]3 |[M:4/4] [G,E]G,G,G, C,4 |] %16
V:3
 x8 | x8 | x4[K:bass] x4 | z4[K:treble] .[G,D]2 z2 | x8 | x8 |[M:9/8] x9 |[M:4/4] x8 | x8 | x8 | %10
 x8 | .C2 G2 z4 | x8 | x8 |[M:9/8] x9 |[M:4/4] z EDD [EGc]4 |] %16
V:4
 x8 | x8 | x8 | z4 G,,4 | x8 | x8 |[M:9/8] x9 |[M:4/4][K:treble] x4[K:bass] x4 | x8 | F,2 z2 z4 | %10
 x8 | x8 | x8 | x8 |[M:9/8][K:treble] x4[K:bass] x5 |[M:4/4] x8 |] %16

